src/components/00-materials/images-raw/Repairs 2.svg

<svg width="96" height="96" viewBox="0 0 96 96" fill="none" xmlns="http://www.w3.org/2000/svg">
<path d="M19 79.85C18.5277 80.2941 17.9007 80.5365 17.2525 80.5256C16.6042 80.5147 15.9858 80.2514 15.5287 79.7916C15.0716 79.3319 14.8118 78.712 14.8045 78.0637C14.7973 77.4154 15.0432 76.7899 15.49 76.32C15.719 76.0869 15.9921 75.9018 16.2934 75.7754C16.5947 75.649 16.9182 75.5839 17.245 75.5839C17.5718 75.5839 17.8952 75.649 18.1966 75.7754C18.4979 75.9018 18.771 76.0869 19 76.32C19.4671 76.7887 19.7295 77.4234 19.7295 78.085C19.7295 78.7467 19.4671 79.3814 19 79.85V79.85ZM83.63 73.44L66.74 56.54C66.6295 56.4307 66.4804 56.3694 66.325 56.3694C66.1696 56.3694 66.0205 56.4307 65.91 56.54C65.23 57.22 62.77 54.76 63.44 54.08C63.4985 54.0258 63.5451 53.96 63.577 53.8869C63.6089 53.8137 63.6253 53.7348 63.6253 53.655C63.6253 53.5753 63.6089 53.4963 63.577 53.4232C63.5451 53.3501 63.4985 53.2843 63.44 53.23L61.14 51C61.0497 50.9062 60.9301 50.8461 60.8009 50.8297C60.6717 50.8133 60.5408 50.8417 60.43 50.91L51.62 59.71C51.5551 59.8219 51.5288 59.952 51.5451 60.0802C51.5613 60.2085 51.6193 60.3279 51.71 60.42L54.01 62.72C54.0642 62.7769 54.1293 62.8222 54.2015 62.8531C54.2737 62.8841 54.3515 62.9 54.43 62.9C54.5085 62.9 54.5863 62.8841 54.6585 62.8531C54.7307 62.8222 54.7958 62.7769 54.85 62.72C55.52 62.05 57.98 64.51 57.31 65.19C57.2037 65.3001 57.1443 65.4471 57.1443 65.6C57.1443 65.753 57.2037 65.9 57.31 66.01L74.22 82.91C75.4868 84.0765 77.1556 84.7078 78.8773 84.6719C80.5989 84.636 82.24 83.9355 83.457 82.7172C84.674 81.4989 85.3727 79.8571 85.4068 78.1355C85.4409 76.4138 84.8078 74.7456 83.64 73.48L83.63 73.44Z" stroke="#00008F" stroke-width="2" stroke-linecap="round" stroke-linejoin="round"/>
<path d="M67.06 34.8901C68.7698 35.5606 70.6086 35.8374 72.44 35.7001C74.0771 35.5712 75.6728 35.121 77.1358 34.3753C78.5989 33.6295 79.9007 32.6027 80.9668 31.3537C82.0329 30.1046 82.8424 28.6577 83.3492 27.0957C83.8559 25.5337 84.0499 23.8871 83.92 22.2501C83.9569 21.4397 83.817 20.6309 83.51 19.8801L76.22 29.0001L68 28.0001L67 19.0001L76.08 11.7101C75.3296 11.4005 74.521 11.2573 73.71 11.2901C70.4034 11.0333 67.1301 12.0989 64.6084 14.2531C62.0868 16.4073 60.5229 19.474 60.26 22.7801C60.1233 24.6114 60.4001 26.4501 61.07 28.1601L46.07 42.1601L27.14 23.2701L25.86 19.1301L17.62 13.1301L13.4 17.3201L19.65 25.4401L23.91 26.6101L42.68 45.3901L12.38 73.7901C11.7686 74.4095 11.2873 75.1449 10.9642 75.953C10.6412 76.7611 10.4829 77.6257 10.4987 78.4958C10.5146 79.366 10.7042 80.2242 11.0565 81.0201C11.4087 81.8159 11.9165 82.5333 12.55 83.1301C15.17 85.7301 19.19 85.0101 21.79 82.2801L50 52.7301L53.28 56.0001L56.53 52.6401L53.24 49.3601L67.06 34.8901Z" stroke="#00008F" stroke-width="2" stroke-linecap="round" stroke-linejoin="round"/>
</svg>

<svg width="96" height="96" viewBox="0 0 96 96" fill="none" xmlns="http://www.w3.org/2000/svg"><path d="M19 79.85a2.49 2.49 0 01-3.51-3.53 2.46 2.46 0 013.51 0 2.5 2.5 0 010 3.53v0zm64.63-6.41l-16.89-16.9a.59.59 0 00-.83 0c-.68.68-3.14-1.78-2.47-2.46a.579.579 0 000-.85L61.14 51a.57.57 0 00-.71-.09l-8.81 8.8a.59.59 0 00.09.71l2.3 2.3a.58.58 0 00.84 0c.67-.67 3.13 1.79 2.46 2.47a.59.59 0 000 .82l16.91 16.9a6.67 6.67 0 009.42-9.43l-.01-.04z" stroke="#00008F" stroke-width="2" stroke-linecap="round" stroke-linejoin="round"/><path d="M67.06 34.89c1.71.67 3.549.947 5.38.81a12.502 12.502 0 0011.48-13.45 5.59 5.59 0 00-.41-2.37L76.22 29 68 28l-1-9 9.08-7.29a5.619 5.619 0 00-2.37-.42 12.52 12.52 0 00-13.45 11.49 12.25 12.25 0 00.81 5.38l-15 14-18.93-18.89-1.28-4.14-8.24-6-4.22 4.19 6.25 8.12 4.26 1.17 18.77 18.78-30.3 28.4a6.53 6.53 0 00.17 9.34c2.62 2.6 6.64 1.88 9.24-.85L50 52.73 53.28 56l3.25-3.36-3.29-3.28 13.82-14.47z" stroke="#00008F" stroke-width="2" stroke-linecap="round" stroke-linejoin="round"/></svg>
